;FLAVOR:UltiGCode
;TIME:2309
;MATERIAL:4520
;MATERIAL2:0
;NOZZLE_DIAMETER:0.4
;Generated with Cura_SteamEngine 3.0.4
M82 ; absolute extrusion mode

;LAYER_COUNT:106
;LAYER:0
M107
G0 F3600 X73.478 Y90.188 Z0.3
;TYPE:SKIRT
G1 F1800 X74.12 Y89.73 E0.09463
G1 X74.487 Y89.509 E0.14604
G1 X74.933 Y89.257 E0.20752
G1 X75.639 Y88.904 E0.30224
G1 X76.378 Y88.624 E0.39707
G1 X77.141 Y88.42 E0.49184
G1 X77.92 Y88.294 E0.58654
G1 X78.709 Y88.248 E0.68138
G1 X78.969 Y88.259 E0.71261
G1 X79.26 Y88.099 E0.75246
G1 X79.97 Y87.753 E0.84724
G1 X80.711 Y87.481 E0.94196
G1 X81.476 Y87.285 E1.03672
G1 X82.257 Y87.167 E1.13151
G1 X82.977 Y87.129 E1.21803
G1 X83.288 Y87.127 E1.25535
G1 X84.077 Y87.162 E1.35012
G1 X84.769 Y87.264 E1.43406
G1 X85.244 Y87.285 E1.49111
G1 X86.026 Y87.4 E1.58596
G1 X86.094 Y87.418 E1.5944
G1 X86.771 Y87.474 E1.67592
G1 X87.548 Y87.618 E1.77075
G1 X88.306 Y87.84 E1.86553
G1 X89.037 Y88.137 E1.96021
G1 X89.735 Y88.507 E2.05501
G1 X90.392 Y88.945 E2.14977
G1 X91.001 Y89.448 E2.24455
G1 X91.556 Y90.01 E2.33933
G1 X92.051 Y90.625 E2.43407
G1 X92.482 Y91.286 E2.52876
G1 X92.663 Y91.638 E2.57626
G1 X92.835 Y91.631 E2.59692
G1 X93.623 Y91.679 E2.69165
G1 X94.389 Y91.806 E2.78483
G1 X95.015 Y91.712 E2.86079
G1 X95.803 Y91.674 E2.95546
G1 X96.592 Y91.716 E3.05027
G1 X97.702 Y91.914 E3.18557
G1 X98.017 Y91.994 E3.22457
G1 X98.772 Y92.227 E3.31939
G1 X99.499 Y92.535 E3.41414
G1 X100.191 Y92.915 E3.50887
G1 X100.841 Y93.363 E3.60361
G1 X101.443 Y93.874 E3.69836
G1 X101.769 Y94.214 E3.75489
G1 X101.768 Y92.675 E3.93957
G1 X101.807 Y91.886 E4.03436
G1 X101.889 Y91.348 E4.09967
G1 X101.921 Y81.722 E5.25479
G1 X101.964 Y80.934 E5.34949
G1 X102.086 Y80.153 E5.44435
G1 X102.286 Y79.39 E5.539
G1 X102.563 Y78.65 E5.63382
G1 X102.913 Y77.942 E5.7286
G1 X103.332 Y77.273 E5.82332
G1 X103.665 Y76.846 E5.8883
G1 X103.564 Y76.627 E5.91724
G1 X103.309 Y75.88 E6.01196
G1 X103.13 Y75.111 E6.10671
G1 X103.03 Y74.327 E6.20155
G1 X103.007 Y73.732 E6.273
G1 X103.007 Y72.428 E6.42948
G1 X103.047 Y71.639 E6.52428
G1 X103.166 Y70.859 E6.61897
G1 X103.364 Y70.094 E6.71379
G1 X103.638 Y69.354 E6.80848
G1 X103.986 Y68.645 E6.90326
G1 X104.538 Y67.787 E7.02569
G1 X104.615 Y67.683 E7.04122
G1 X105.117 Y67.073 E7.13602
G1 X105.677 Y66.516 E7.2308
G1 X106.291 Y66.02 E7.32551
G1 X106.952 Y65.588 E7.42027
G1 X107.653 Y65.225 E7.515
G1 X108.648 Y64.851 E7.64256
G1 X109.293 Y64.658 E7.72335
G1 X110.06 Y64.471 E7.81809
G1 X110.842 Y64.361 E7.91285
G1 X111.631 Y64.332 E8.00759
G1 X112.419 Y64.382 E8.10234
G1 X113.198 Y64.512 E8.19712
G1 X113.913 Y64.704 E8.28596
G1 X114.508 Y64.895 E8.36094
G1 X115.247 Y65.174 E8.45573
G1 X115.953 Y65.527 E8.55045
G1 X116.621 Y65.949 E8.64527
G1 X117.242 Y66.436 E8.73997
G1 X117.811 Y66.984 E8.83477
G1 X118.322 Y67.586 E8.92952
G1 X118.585 Y67.952 E8.98361
G1 X118.654 Y68.054 E8.99839
G1 X119.062 Y68.729 E9.09303
G1 X119.401 Y69.443 E9.18788
G1 X119.665 Y70.187 E9.28261
G1 X119.853 Y70.954 E9.37738
G1 X119.963 Y71.736 E9.47214
G1 X119.993 Y72.424 E9.55478
G1 X119.993 Y73.732 E9.71174
G1 X119.953 Y74.521 E9.80654
G1 X119.834 Y75.301 E9.90123
G1 X119.636 Y76.066 E9.99605
G1 X119.362 Y76.806 E10.09074
G1 X119.353 Y76.825 E10.09326
G1 X119.776 Y77.39 E10.17796
G1 X120.183 Y78.066 E10.27265
G1 X120.52 Y78.78 E10.36739
G1 X120.782 Y79.525 E10.46216
G1 X120.969 Y80.293 E10.55701
G1 X121.076 Y81.075 E10.65173
G1 X121.105 Y81.738 E10.73136
G1 X121.113 Y91.403 E11.89116
G1 X121.196 Y91.965 E11.95933
G1 X121.231 Y92.715 E12.04943
G1 X121.229 Y95.003 E12.32399
G1 X121.188 Y95.791 E12.41868
G1 X121.114 Y96.274 E12.47732
G1 X121.104 Y137.223 E17.3912
G1 X121.064 Y138.012 E17.486
G1 X120.944 Y138.792 E17.5807
G1 X120.926 Y138.86 E17.58914
G1 X120.929 Y145.665 E18.40574
G1 X121.105 Y146.485 E18.50638
G1 X121.201 Y147.12 E18.58345
G1 X121.28 Y147.906 E18.67824
G1 X121.286 Y148.493 E18.74869
G1 X121.269 Y149.132 E18.82539
G1 X121.208 Y149.92 E18.92024
G1 X121.068 Y150.697 E19.01498
G1 X120.85 Y151.456 E19.10974
G1 X120.683 Y151.899 E19.16655
G1 X120.162 Y153.162 E19.3305
G1 X119.824 Y153.876 E19.4253
G1 X119.416 Y154.552 E19.52005
G1 X118.941 Y155.184 E19.61492
G1 X118.515 Y155.655 E19.69113
G1 X118.402 Y155.77 E19.71047
G1 X117.82 Y156.304 E19.80526
G1 X117.188 Y156.777 E19.89999
G1 X116.511 Y157.184 E19.99478
G1 X115.818 Y157.511 E20.08673
G1 X114.565 Y158.029 E20.24943
G1 X113.821 Y158.294 E20.34421
G1 X113.054 Y158.481 E20.43894
G1 X112.272 Y158.591 E20.53371
G1 X111.585 Y158.621 E20.61622
G1 X111.414 Y158.621 E20.63674
G1 X110.625 Y158.581 E20.73155
G1 X109.845 Y158.462 E20.82623
G1 X109.08 Y158.264 E20.92105
G1 X108.429 Y158.027 E21.00419
G1 X107.176 Y157.508 E21.16694
G1 X106.463 Y157.17 E21.26163
G1 X105.787 Y156.76 E21.3565
G1 X105.157 Y156.285 E21.45118
G1 X104.621 Y155.793 E21.53849
G1 X104.509 Y155.68 E21.55758
G1 X103.982 Y155.092 E21.65233
G1 X103.518 Y154.453 E21.7471
G1 X103.12 Y153.771 E21.84185
G1 X102.811 Y153.096 E21.93094
G1 X102.274 Y151.759 E22.10383
G1 X102.017 Y151.012 E22.19863
G1 X101.837 Y150.243 E22.2934
G1 X101.736 Y149.46 E22.38814
G1 X101.712 Y148.852 E22.46116
G1 X101.712 Y148.262 E22.53196
G1 X101.752 Y147.473 E22.62676
G1 X101.845 Y146.829 E22.70484
G1 X102.037 Y145.802 E22.83022
G1 X102.074 Y145.648 E22.84922
G1 X102.072 Y137.118 E23.87282
G1 X101.989 Y136.718 E23.92185
G1 X101.906 Y135.932 E24.01669
G1 X101.895 Y135.513 E24.06699
G1 X101.891 Y119.183 E26.02659
G1 X101.704 Y119.466 E26.06729
G1 X101.204 Y120.077 E26.16203
G1 X100.644 Y120.634 E26.25681
G1 X100.031 Y121.132 E26.35159
G1 X99.371 Y121.565 E26.44631
G1 X98.463 Y122.02 E26.56819
G1 X97.277 Y122.521 E26.72268
G1 X96.535 Y122.791 E26.81744
G1 X95.77 Y122.985 E26.91214
G1 X94.988 Y123.1 E27.00699
G1 X94.2 Y123.136 E27.10165
G1 X93.411 Y123.092 E27.19648
G1 X92.631 Y122.968 E27.29125
G1 X91.868 Y122.766 E27.38597
G1 X91.012 Y122.436 E27.49606
G1 X89.924 Y121.941 E27.63949
G1 X89.223 Y121.578 E27.73422
G1 X88.562 Y121.146 E27.82898
G1 X87.948 Y120.649 E27.92377
G1 X87.387 Y120.093 E28.01856
G1 X86.774 Y119.328 E28.13619
G1 X86.71 Y119.237 E28.14954
G1 X86.289 Y118.569 E28.24429
G1 X85.938 Y117.862 E28.33901
G1 X85.66 Y117.123 E28.43376
G1 X85.458 Y116.359 E28.52859
G1 X85.399 Y115.938 E28.5796
G1 X85.181 Y115.366 E28.65306
G1 X84.977 Y114.604 E28.74772
G1 X84.849 Y113.811 E28.84411
G1 X84.69 Y112.35 E29.02047
G1 X84.644 Y111.562 E29.11519
G1 X84.672 Y110.933 E29.19074
G1 X84.624 Y110.157 E29.28404
G1 X84.627 Y109.446 E29.36936
G1 X84.311 Y109.465 E29.40735
G1 X78.66 Y109.382 E30.08554
G1 X77.872 Y109.331 E30.1803
G1 X77.094 Y109.2 E30.27498
G1 X76.332 Y108.991 E30.36979
G1 X75.596 Y108.706 E30.4645
G1 X74.934 Y108.372 E30.55348
G1 X74.478 Y108.114 E30.61635
G1 X73.811 Y107.691 E30.71113
G1 X73.191 Y107.202 E30.80589
G1 X72.623 Y106.654 E30.9006
G1 X72.113 Y106.05 E30.99546
G1 X71.791 Y105.594 E31.06245
G1 X71.689 Y105.438 E31.08481
G1 X71.29 Y104.756 E31.17963
G1 X70.963 Y104.037 E31.27442
G1 X70.711 Y103.289 E31.36913
G1 X70.535 Y102.519 E31.46392
G1 X70.446 Y101.846 E31.54538
G1 X70.24 Y99.48 E31.83037
G1 X70.212 Y98.69 E31.92523
G1 X70.24 Y98.129 E31.99264
G1 X70.443 Y95.788 E32.27461
G1 X70.551 Y95.006 E32.36934
G1 X70.738 Y94.239 E32.46408
G1 X71.001 Y93.494 E32.55888
G1 X71.338 Y92.78 E32.65363
G1 X71.761 Y92.08 E32.75177
G1 X71.871 Y91.918 E32.77527
G1 X72.347 Y91.288 E32.87002
G1 X72.884 Y90.71 E32.9647
G1 X73.478 Y90.188 E33.05959
G0 F3600 X73.773 Y90.465
G1 F1800 X74.684 Y89.857 E33.19102
G1 X75.13 Y89.605 E33.2525
G1 X75.818 Y89.262 E33.34475
G1 X76.538 Y88.992 E33.43702
G1 X77.283 Y88.799 E33.52937
G1 X78.043 Y88.684 E33.62161
G1 X78.812 Y88.648 E33.71399
G1 X79.068 Y88.663 E33.74476
G1 X79.094 Y88.647 E33.74843
G1 X79.453 Y88.449 E33.79763
G1 X80.145 Y88.113 E33.88994
G1 X80.868 Y87.851 E33.98222
G1 X81.614 Y87.665 E34.07448
G1 X82.376 Y87.558 E34.16682
G1 X82.979 Y87.529 E34.23926
G1 X83.29 Y87.527 E34.27658
G1 X84.059 Y87.562 E34.36896
G1 X84.719 Y87.662 E34.44906
G1 X85.226 Y87.685 E34.50996
G1 X85.987 Y87.8 E34.60232
G1 X86.042 Y87.815 E34.60916
G1 X86.738 Y87.873 E34.69297
G1 X87.494 Y88.016 E34.7853
G1 X88.231 Y88.237 E34.87763
G1 X88.94 Y88.534 E34.96987
G1 X89.616 Y88.902 E35.06223
G1 X90.249 Y89.339 E35.15454
G1 X90.833 Y89.839 E35.24679
G1 X91.363 Y90.397 E35.33914
G1 X91.832 Y91.006 E35.43138
G1 X92.235 Y91.662 E35.52377
G1 X92.419 Y92.046 E35.57487
G1 X92.89 Y92.031 E35.63142
G1 X93.658 Y92.086 E35.72381
G1 X94.373 Y92.213 E35.81095
G1 X94.451 Y92.195 E35.82056
G1 X95.213 Y92.096 E35.91277
G1 X95.982 Y92.077 E36.00508
G1 X96.749 Y92.137 E36.0974
G1 X97.604 Y92.302 E36.20189
G1 X97.919 Y92.382 E36.24089
G1 X98.653 Y92.61 E36.33312
G1 X99.36 Y92.912 E36.42538
G1 X100.032 Y93.287 E36.51773
G1 X100.661 Y93.729 E36.60998
G1 X101.241 Y94.234 E36.70226
G1 X101.766 Y94.797 E36.79464
G1 X102.19 Y95.36 E36.87922
G1 X102.17 Y94.897 E36.93483
G1 X102.168 Y92.675 E37.20147
G1 X102.207 Y91.907 E37.29375
G1 X102.289 Y91.384 E37.35727
G1 X102.321 Y81.723 E38.5166
G1 X102.364 Y80.955 E38.6089
G1 X102.486 Y80.196 E38.70115
G1 X102.686 Y79.453 E38.79349
G1 X102.962 Y78.736 E38.88568
G1 X103.311 Y78.05 E38.97804
G1 X103.73 Y77.405 E39.07034
G1 X104.132 Y76.907 E39.14714
G1 X103.906 Y76.404 E39.21331
G1 X103.666 Y75.673 E39.30564
G1 X103.503 Y74.922 E39.39786
G1 X103.419 Y74.157 E39.49021
G1 X103.407 Y73.732 E39.54123
G1 X103.407 Y72.428 E39.69771
G1 X103.447 Y71.66 E39.78999
G1 X103.566 Y70.9 E39.88231
G1 X103.764 Y70.157 E39.97458
G1 X104.038 Y69.438 E40.06691
G1 X104.385 Y68.752 E40.15916
G1 X104.86 Y68.025 E40.26337
G1 X104.937 Y67.921 E40.2789
G1 X105.426 Y67.327 E40.37123
G1 X105.974 Y66.788 E40.46347
G1 X106.575 Y66.308 E40.55576
G1 X107.223 Y65.893 E40.6481
G1 X107.91 Y65.548 E40.74036
G1 X108.763 Y65.235 E40.84939
G1 X109.408 Y65.042 E40.93018
G1 X110.155 Y64.86 E41.02244
G1 X110.917 Y64.756 E41.11473
G1 X111.686 Y64.733 E41.20705
G1 X112.453 Y64.789 E41.29934
G1 X113.21 Y64.925 E41.39163
G1 X113.791 Y65.085 E41.46395
G1 X114.386 Y65.276 E41.53893
G1 X115.105 Y65.549 E41.63122
G1 X115.792 Y65.895 E41.72353
G1 X116.439 Y66.31 E41.81577
G1 X117.04 Y66.791 E41.90814
G1 X117.587 Y67.331 E42.00038
G1 X118.253 Y68.176 E42.12949
G1 X118.322 Y68.278 E42.14427
G1 X118.72 Y68.936 E42.23655
G1 X119.046 Y69.633 E42.32888
G1 X119.299 Y70.359 E42.42114
G1 X119.475 Y71.108 E42.51347
G1 X119.572 Y71.871 E42.60577
G1 X119.593 Y72.424 E42.67217
G1 X119.593 Y73.732 E42.82913
G1 X119.553 Y74.5 E42.92142
G1 X119.434 Y75.26 E43.01373
G1 X119.236 Y76.003 E43.106
G1 X118.962 Y76.722 E43.19833
G1 X118.877 Y76.891 E43.22103
G1 X119.12 Y77.169 E43.26534
G1 X119.564 Y77.797 E43.35764
G1 X119.94 Y78.468 E43.44994
G1 X120.244 Y79.175 E43.54229
G1 X120.474 Y79.909 E43.63459
G1 X120.625 Y80.663 E43.72687
G1 X120.705 Y81.739 E43.85634
G1 X120.713 Y91.43 E45.01926
G1 X120.801 Y92.043 E45.09358
G1 X120.831 Y92.714 E45.17418
G1 X120.829 Y95.002 E45.44874
G1 X120.788 Y95.771 E45.54115
G1 X120.714 Y96.238 E45.59789
G1 X120.704 Y137.223 E50.51609
G1 X120.664 Y137.991 E50.60837
G1 X120.544 Y138.751 E50.7007
G1 X120.526 Y138.817 E50.70891
G1 X120.529 Y145.703 E51.53523
G1 X120.71 Y146.545 E51.63858
G1 X120.806 Y147.18 E51.71565
G1 X120.881 Y147.945 E51.80789
G1 X120.886 Y148.483 E51.87245
G1 X120.869 Y149.122 E51.94916
G1 X120.809 Y149.889 E52.04148
G1 X120.669 Y150.645 E52.13374
G1 X120.452 Y151.383 E52.22605
G1 X120.313 Y151.747 E52.2728
G1 X119.792 Y153.01 E52.43675
G1 X119.462 Y153.705 E52.52908
G1 X119.062 Y154.362 E52.62138
G1 X118.596 Y154.973 E52.71359
G1 X118.229 Y155.374 E52.77882
G1 X118.116 Y155.489 E52.79817
G1 X117.549 Y156.009 E52.89049
G1 X116.932 Y156.468 E52.98277
G1 X116.27 Y156.859 E53.07503
G1 X115.665 Y157.142 E53.15518
G1 X114.412 Y157.66 E53.31788
G1 X113.687 Y157.916 E53.41015
G1 X112.939 Y158.096 E53.50247
G1 X112.177 Y158.197 E53.59471
G1 X111.585 Y158.221 E53.66581
G1 X111.414 Y158.221 E53.68633
G1 X110.646 Y158.181 E53.77861
G1 X109.886 Y158.062 E53.87093
G1 X109.143 Y157.864 E53.9632
G1 X108.582 Y157.658 E54.03491
G1 X107.329 Y157.139 E54.19766
G1 X106.635 Y156.808 E54.28993
G1 X105.979 Y156.407 E54.38219
G1 X105.368 Y155.94 E54.47447
G1 X104.905 Y155.511 E54.55022
G1 X104.793 Y155.398 E54.56931
G1 X104.281 Y154.825 E54.66152
G1 X103.831 Y154.201 E54.75384
G1 X103.448 Y153.534 E54.84614
G1 X103.182 Y152.947 E54.92347
G1 X102.645 Y151.61 E55.09637
G1 X102.396 Y150.882 E55.1887
G1 X102.224 Y150.133 E55.28092
G1 X102.13 Y149.369 E55.37329
G1 X102.112 Y148.852 E55.43537
G1 X102.112 Y148.262 E55.50617
G1 X102.152 Y147.494 E55.59845
G1 X102.238 Y146.902 E55.67024
G1 X102.43 Y145.875 E55.79561
G1 X102.474 Y145.693 E55.81808
G1 X102.472 Y137.078 E56.85188
G1 X102.375 Y136.596 E56.91088
G1 X102.295 Y135.513 E57.0412
G1 X102.291 Y117.577 E59.19352
G1 X102.128 Y117.977 E59.24535
G1 X101.765 Y118.656 E59.33774
G1 X101.335 Y119.293 E59.42997
G1 X100.84 Y119.882 E59.52229
G1 X100.287 Y120.416 E59.61454
G1 X99.681 Y120.891 E59.70694
G1 X99.03 Y121.299 E59.79913
G1 X98.308 Y121.652 E59.89557
G1 X97.122 Y122.153 E60.05007
G1 X96.398 Y122.415 E60.14246
G1 X95.652 Y122.6 E60.2347
G1 X94.89 Y122.708 E60.32705
G1 X94.122 Y122.735 E60.41927
G1 X93.354 Y122.683 E60.51164
G1 X92.597 Y122.551 E60.60385
G1 X91.857 Y122.341 E60.69616
G1 X91.178 Y122.072 E60.7838
G1 X90.09 Y121.577 E60.92723
G1 X89.407 Y121.222 E61.0196
G1 X88.765 Y120.799 E61.11186
G1 X88.17 Y120.311 E61.20421
G1 X87.629 Y119.764 E61.29653
G1 X87.101 Y119.098 E61.39852
G1 X87.037 Y119.007 E61.41187
G1 X86.628 Y118.356 E61.50412
G1 X86.289 Y117.665 E61.59649
G1 X86.023 Y116.944 E61.68871
G1 X85.833 Y116.198 E61.78108
G1 X85.783 Y115.824 E61.82636
G1 X85.556 Y115.224 E61.90334
G1 X85.359 Y114.481 E61.99558
G1 X85.246 Y113.768 E62.08221
G1 X85.087 Y112.307 E62.25857
G1 X85.044 Y111.539 E62.35087
G1 X85.071 Y110.981 E62.41791
G1 X85.057 Y110.888 E62.4292
G1 X85.024 Y110.158 E62.51689
G1 X85.029 Y109.036 E62.65153
G1 X84.317 Y109.065 E62.73704
G1 X78.666 Y108.982 E63.41523
G1 X77.899 Y108.931 E63.50747
G1 X77.141 Y108.8 E63.59978
G1 X76.401 Y108.592 E63.69202
G1 X75.686 Y108.307 E63.78439
G1 X75.131 Y108.024 E63.85915
G1 X74.675 Y107.766 E63.92202
G1 X74.026 Y107.353 E64.01433
G1 X73.424 Y106.874 E64.10665
G1 X72.874 Y106.336 E64.19897
G1 X72.383 Y105.744 E64.29127
G1 X72.125 Y105.375 E64.3453
G1 X72.023 Y105.219 E64.36766
G1 X71.637 Y104.554 E64.45993
G1 X71.321 Y103.853 E64.55221
G1 X71.079 Y103.122 E64.64461
G1 X70.915 Y102.371 E64.73685
G1 X70.845 Y101.811 E64.80457
G1 X70.639 Y99.445 E65.08957
G1 X70.612 Y98.676 E65.1819
G1 X70.639 Y98.164 E65.24343
G1 X70.842 Y95.823 E65.5254
G1 X70.948 Y95.061 E65.61772
G1 X71.133 Y94.314 E65.71007
G1 X71.394 Y93.591 E65.80231
G1 X71.729 Y92.898 E65.89468
G1 X72.092 Y92.305 E65.97811
G1 X72.202 Y92.143 E66.00161
G1 X72.666 Y91.53 E66.09387
G1 X73.192 Y90.969 E66.18615
G1 X73.773 Y90.465 E66.27845
G0 F3600 X74.068 Y90.742
G1 F1800 X74.88 Y90.206 E66.3952
G1 X75.326 Y89.954 E66.45668
G1 X75.997 Y89.621 E66.54657
G1 X76.698 Y89.362 E66.63624
G1 X77.424 Y89.179 E66.72609
G1 X78.164 Y89.074 E66.81578
G1 X78.912 Y89.049 E66.90559
G1 X79.177 Y89.069 E66.93748
G1 X79.287 Y88.997 E66.95325
G1 X79.646 Y88.799 E67.00245
G1 X80.32 Y88.474 E67.09224
G1 X81.024 Y88.222 E67.18197
G1 X81.751 Y88.046 E67.27173
G1 X82.493 Y87.949 E67.36153
G1 X82.982 Y87.929 E67.42026
G1 X83.293 Y87.927 E67.45758
G1 X84.04 Y87.962 E67.54732
G1 X84.668 Y88.06 E67.62359
G1 X85.208 Y88.085 E67.68846
G1 X85.947 Y88.2 E67.77821
G1 X85.984 Y88.21 E67.78281
G1 X86.705 Y88.272 E67.86965
G1 X87.439 Y88.415 E67.95938
G1 X88.154 Y88.635 E68.04915
G1 X88.841 Y88.93 E68.13887
G1 X89.493 Y89.297 E68.22865
G1 X90.102 Y89.732 E68.31846
G1 X90.661 Y90.229 E68.40822
G1 X91.164 Y90.783 E68.49802
G1 X91.605 Y91.387 E68.58776
G1 X91.979 Y92.035 E68.67754
G1 X92.166 Y92.456 E68.73282
G1 X92.196 Y92.452 E68.73645
G1 X92.944 Y92.433 E68.82624
G1 X93.69 Y92.494 E68.91606
G1 X94.38 Y92.626 E69.00036
G1 X94.664 Y92.564 E69.03524
G1 X95.408 Y92.484 E69.12504
G1 X96.156 Y92.484 E69.2148
G1 X96.9 Y92.564 E69.30459
G1 X97.505 Y92.689 E69.37873
G1 X97.82 Y92.769 E69.41773
G1 X98.534 Y92.992 E69.50749
